images/bg-pre.svg

<svg xmlns="http://www.w3.org/2000/svg" width="720" height="432.004" viewBox="0 0 720 432.004"><path fill="#F9F9FA" d="M274.137 9.328c-13.219-12.438-31.078-12.438-44.311 0l-229.725 206.676 229.725 206.667c13.233 12.444 31.092 12.444 44.311 0 13.232-12.46 13.232-32.653 0-45.101l-178.355-161.566 178.355-161.578c13.232-12.446 13.232-32.632 0-45.098zm216.238 0c-13.232-12.438-31.078-12.438-44.311 0-13.233 12.466-12.519 32.653.718 45.099l177.638 161.577-177.638 161.566c-13.233 12.447-13.951 32.641-.718 45.101 13.229 12.444 31.075 12.444 44.311 0l229.726-206.667-229.726-206.676z"/></svg>

<?xml version="1.0" encoding="utf-8"?>
<!-- Generator: Adobe Illustrator 15.0.0, SVG Export Plug-In . SVG Version: 6.00 Build 0)  -->
<!DOCTYPE svg PUBLIC "-//W3C//DTD SVG 1.1//EN" "http://www.w3.org/Graphics/SVG/1.1/DTD/svg11.dtd">
<svg version="1.1" id="Layer_1" xmlns="http://www.w3.org/2000/svg" xmlns:xlink="http://www.w3.org/1999/xlink" x="0px" y="0px"
	 width="720px" height="432.004px" viewBox="0 0 720 432.004" enable-background="new 0 0 720 432.004" xml:space="preserve">
<path fill="#F9F9FA" d="M274.137,9.328c-13.219-12.438-31.078-12.438-44.311,0L0.101,216.004l229.725,206.667
	c13.233,12.444,31.092,12.444,44.311,0c13.232-12.46,13.232-32.653,0-45.101L95.782,216.004L274.137,54.426
	C287.369,41.98,287.369,21.794,274.137,9.328z M490.375,9.328c-13.232-12.438-31.078-12.438-44.311,0
	c-13.233,12.466-12.519,32.653,0.718,45.099L624.42,216.004L446.782,377.57c-13.233,12.447-13.951,32.641-0.718,45.101
	c13.229,12.444,31.075,12.444,44.311,0l229.726-206.667L490.375,9.328z"/>
</svg>
